static/img/in-field/accordion-dark.svg

<svg width="961" height="233" viewBox="0 0 961 233" fill="none" xmlns="http://www.w3.org/2000/svg">
<rect width="961" height="233" fill="#353A40"/>
<g clip-path="url(#clip0_6828_86696)">
<rect x="109.5" y="44.5" width="742" height="144" rx="4" fill="#6A6E79"/>
<rect x="110" y="45" width="741" height="71" fill="#464B52"/>
<path fill-rule="evenodd" clip-rule="evenodd" d="M157.5 90.5H155.5V71.5H151.5V68.5H144.5V74H140V76.5H136.5V90.5H133.5V92.5H157.5V90.5ZM154 90.5H151.5V86.5H147.5V90.5H145.5V73H154V90.5ZM144.5 90.5V78H138V90.5H144.5ZM145.5 71.5V70H150V71.5H145.5ZM146.5 77.5H152.5V78.5H146.5V77.5ZM152.5 74.5H146.5V75.5H152.5V74.5ZM139.5 80.5H143.5V81.5H139.5V80.5ZM143.5 83.5H139.5V84.5H143.5V83.5ZM139.5 86.5H143.5V87.5H139.5V86.5ZM152.5 80.5H146.5V81.5H152.5V80.5ZM146.5 83.5H152.5V84.5H146.5V83.5ZM150.5 90.5H148.5V87.5H150.5V90.5Z" fill="white"/>
<path d="M188.493 89.5H186.667V75.417H181.693V73.7949H193.467V75.417H188.493V89.5ZM197.605 89.5H195.822V77.7266H197.605V89.5ZM195.672 74.5361C195.672 74.1279 195.772 73.8307 195.973 73.6445C196.173 73.4512 196.424 73.3545 196.725 73.3545C197.011 73.3545 197.258 73.4512 197.466 73.6445C197.674 73.8379 197.777 74.1351 197.777 74.5361C197.777 74.9372 197.674 75.238 197.466 75.4385C197.258 75.6318 197.011 75.7285 196.725 75.7285C196.424 75.7285 196.173 75.6318 195.973 75.4385C195.772 75.238 195.672 74.9372 195.672 74.5361ZM205.439 88.2432C205.755 88.2432 206.059 88.2217 206.353 88.1787C206.646 88.1286 206.879 88.0785 207.051 88.0283V89.3926C206.857 89.4857 206.571 89.5609 206.191 89.6182C205.819 89.6826 205.482 89.7148 205.182 89.7148C202.904 89.7148 201.766 88.5153 201.766 86.1162V79.1123H200.079V78.2529L201.766 77.5117L202.518 74.998H203.549V77.7266H206.965V79.1123H203.549V86.041C203.549 86.75 203.717 87.2943 204.054 87.6738C204.39 88.0534 204.852 88.2432 205.439 88.2432ZM211.447 89.5H209.664V72.7852H211.447V89.5ZM220.452 89.7148C218.712 89.7148 217.337 89.1849 216.327 88.125C215.325 87.0651 214.823 85.5934 214.823 83.71C214.823 81.8122 215.289 80.3047 216.22 79.1875C217.158 78.0703 218.415 77.5117 219.99 77.5117C221.465 77.5117 222.633 77.9987 223.492 78.9727C224.352 79.9395 224.781 81.2178 224.781 82.8076V83.9355H216.671C216.707 85.3177 217.054 86.3669 217.713 87.083C218.379 87.7992 219.313 88.1572 220.517 88.1572C221.784 88.1572 223.037 87.8923 224.276 87.3623V88.9521C223.646 89.2243 223.048 89.4176 222.482 89.5322C221.924 89.654 221.247 89.7148 220.452 89.7148ZM219.969 79.0049C219.023 79.0049 218.268 79.3128 217.702 79.9287C217.144 80.5446 216.814 81.3968 216.714 82.4854H222.869C222.869 81.361 222.618 80.5016 222.117 79.9072C221.616 79.3057 220.9 79.0049 219.969 79.0049Z" fill="white"/>
<path d="M828.95 77.05L826.45 74.55L819.5 81.45L812.55 74.55L810.05 77.05L819.5 86.45L828.95 77.05Z" fill="white"/>
<rect x="110" y="45" width="741" height="71" stroke="#6A6E79"/>
<rect width="742" height="72" transform="translate(109.5 116.5)" fill="#464B52"/>
<path fill-rule="evenodd" clip-rule="evenodd" d="M145.5 139.167C138.14 139.167 132.167 145.14 132.167 152.5C132.167 159.86 138.14 165.833 145.5 165.833C152.86 165.833 158.833 159.86 158.833 152.5C158.833 145.14 152.86 139.167 145.5 139.167ZM144.167 163.073C138.9 162.42 134.833 157.94 134.833 152.5C134.833 151.673 134.94 150.887 135.113 150.113L141.5 156.5V157.833C141.5 159.3 142.7 160.5 144.167 160.5V163.073ZM153.367 159.687C153.02 158.607 152.033 157.833 150.833 157.833H149.5V153.833C149.5 153.1 148.9 152.5 148.167 152.5H140.167V149.833H142.833C143.567 149.833 144.167 149.233 144.167 148.5V145.833H146.833C148.3 145.833 149.5 144.633 149.5 143.167V142.62C153.407 144.207 156.167 148.033 156.167 152.5C156.167 155.273 155.1 157.793 153.367 159.687Z" fill="white"/>
<path d="M188.493 161.5H186.667V147.417H181.693V145.795H193.467V147.417H188.493V161.5ZM197.605 161.5H195.822V149.727H197.605V161.5ZM195.672 146.536C195.672 146.128 195.772 145.831 195.973 145.645C196.173 145.451 196.424 145.354 196.725 145.354C197.011 145.354 197.258 145.451 197.466 145.645C197.674 145.838 197.777 146.135 197.777 146.536C197.777 146.937 197.674 147.238 197.466 147.438C197.258 147.632 197.011 147.729 196.725 147.729C196.424 147.729 196.173 147.632 195.973 147.438C195.772 147.238 195.672 146.937 195.672 146.536ZM205.439 160.243C205.755 160.243 206.059 160.222 206.353 160.179C206.646 160.129 206.879 160.078 207.051 160.028V161.393C206.857 161.486 206.571 161.561 206.191 161.618C205.819 161.683 205.482 161.715 205.182 161.715C202.904 161.715 201.766 160.515 201.766 158.116V151.112H200.079V150.253L201.766 149.512L202.518 146.998H203.549V149.727H206.965V151.112H203.549V158.041C203.549 158.75 203.717 159.294 204.054 159.674C204.39 160.053 204.852 160.243 205.439 160.243ZM211.447 161.5H209.664V144.785H211.447V161.5ZM220.452 161.715C218.712 161.715 217.337 161.185 216.327 160.125C215.325 159.065 214.823 157.593 214.823 155.71C214.823 153.812 215.289 152.305 216.22 151.188C217.158 150.07 218.415 149.512 219.99 149.512C221.465 149.512 222.633 149.999 223.492 150.973C224.352 151.939 224.781 153.218 224.781 154.808V155.936H216.671C216.707 157.318 217.054 158.367 217.713 159.083C218.379 159.799 219.313 160.157 220.517 160.157C221.784 160.157 223.037 159.892 224.276 159.362V160.952C223.646 161.224 223.048 161.418 222.482 161.532C221.924 161.654 221.247 161.715 220.452 161.715ZM219.969 151.005C219.023 151.005 218.268 151.313 217.702 151.929C217.144 152.545 216.814 153.397 216.714 154.485H222.869C222.869 153.361 222.618 152.502 222.117 151.907C221.616 151.306 220.9 151.005 219.969 151.005Z" fill="white"/>
<path d="M828.95 149.05L826.45 146.55L819.5 153.45L812.55 146.55L810.05 149.05L819.5 158.45L828.95 149.05Z" fill="white"/>
</g>
<rect x="110" y="45" width="741" height="143" rx="3.5" stroke="#6A6E79"/>
<defs>
<clipPath id="clip0_6828_86696">
<rect x="109.5" y="44.5" width="742" height="144" rx="4" fill="white"/>
</clipPath>
</defs>
</svg>

<svg width="961" height="233" fill="none" xmlns="http://www.w3.org/2000/svg"><path fill="#353A40" d="M0 0h961v233H0z"/><g clip-path="url(#prefix__clip0_6828_86696)"><rect x="109.5" y="44.5" width="742" height="144" rx="4" fill="#6A6E79"/><path fill="#464B52" d="M110 45h741v71H110z"/><path fill-rule="evenodd" clip-rule="evenodd" d="M157.5 90.5h-2v-19h-4v-3h-7V74H140v2.5h-3.5v14h-3v2h24v-2zm-3.5 0h-2.5v-4h-4v4h-2V73h8.5v17.5zm-9.5 0V78H138v12.5h6.5zm1-19V70h4.5v1.5h-4.5zm1 6h6v1h-6v-1zm6-3h-6v1h6v-1zm-13 6h4v1h-4v-1zm4 3h-4v1h4v-1zm-4 3h4v1h-4v-1zm13-6h-6v1h6v-1zm-6 3h6v1h-6v-1zm4 7h-2v-3h2v3z" fill="#fff"/><path d="M188.493 89.5h-1.826V75.417h-4.974v-1.622h11.774v1.622h-4.974V89.5zm9.112 0h-1.783V77.727h1.783V89.5zm-1.933-14.964c0-.408.1-.705.301-.892.2-.193.451-.29.752-.29.286 0 .533.097.741.29.208.194.311.491.311.892s-.103.702-.311.903c-.208.193-.455.29-.741.29a1.04 1.04 0 01-.752-.29c-.201-.201-.301-.502-.301-.903zm9.767 13.707c.316 0 .62-.021.914-.064.293-.05.526-.1.698-.15v1.364c-.194.093-.48.168-.86.225a5.974 5.974 0 01-1.009.097c-2.278 0-3.416-1.2-3.416-3.599v-7.004h-1.687v-.86l1.687-.74.752-2.514h1.031v2.729h3.416v1.385h-3.416v6.929c0 .709.168 1.253.505 1.633.336.38.798.57 1.385.57zm6.008 1.257h-1.783V72.785h1.783V89.5zm9.005.215c-1.74 0-3.115-.53-4.125-1.59-1.002-1.06-1.504-2.532-1.504-4.415 0-1.898.466-3.405 1.397-4.522.938-1.118 2.195-1.676 3.77-1.676 1.475 0 2.643.487 3.502 1.46.86.968 1.289 2.246 1.289 3.836v1.127h-8.11c.036 1.383.383 2.432 1.042 3.148.666.716 1.6 1.074 2.804 1.074 1.267 0 2.52-.265 3.759-.795v1.59a9.104 9.104 0 01-1.794.58c-.558.122-1.235.183-2.03.183zm-.483-10.71c-.946 0-1.701.308-2.267.924-.558.616-.888 1.468-.988 2.556h6.155c0-1.124-.251-1.983-.752-2.578-.501-.601-1.217-.902-2.148-.902zM828.95 77.05l-2.5-2.5-6.95 6.9-6.95-6.9-2.5 2.5 9.45 9.4 9.45-9.4z" fill="#fff"/><path stroke="#6A6E79" d="M110 45h741v71H110z"/><path fill="#464B52" d="M109.5 116.5h742v72h-742z"/><path fill-rule="evenodd" clip-rule="evenodd" d="M145.5 139.167c-7.36 0-13.333 5.973-13.333 13.333s5.973 13.333 13.333 13.333 13.333-5.973 13.333-13.333-5.973-13.333-13.333-13.333zm-1.333 23.906c-5.267-.653-9.334-5.133-9.334-10.573 0-.827.107-1.613.28-2.387l6.387 6.387v1.333c0 1.467 1.2 2.667 2.667 2.667v2.573zm9.2-3.386a2.647 2.647 0 00-2.534-1.854H149.5v-4c0-.733-.6-1.333-1.333-1.333h-8v-2.667h2.666c.734 0 1.334-.6 1.334-1.333v-2.667h2.666c1.467 0 2.667-1.2 2.667-2.666v-.547c3.907 1.587 6.667 5.413 6.667 9.88 0 2.773-1.067 5.293-2.8 7.187z" fill="#fff"/><path d="M188.493 161.5h-1.826v-14.083h-4.974v-1.622h11.774v1.622h-4.974V161.5zm9.112 0h-1.783v-11.773h1.783V161.5zm-1.933-14.964c0-.408.1-.705.301-.891.2-.194.451-.291.752-.291.286 0 .533.097.741.291.208.193.311.49.311.891s-.103.702-.311.902a1.05 1.05 0 01-.741.291c-.301 0-.552-.097-.752-.291-.201-.2-.301-.501-.301-.902zm9.767 13.707c.316 0 .62-.021.914-.064.293-.05.526-.101.698-.151v1.365c-.194.093-.48.168-.86.225a5.916 5.916 0 01-1.009.097c-2.278 0-3.416-1.2-3.416-3.599v-7.004h-1.687v-.859l1.687-.741.752-2.514h1.031v2.729h3.416v1.385h-3.416v6.929c0 .709.168 1.253.505 1.633.336.379.798.569 1.385.569zm6.008 1.257h-1.783v-16.715h1.783V161.5zm9.005.215c-1.74 0-3.115-.53-4.125-1.59-1.002-1.06-1.504-2.532-1.504-4.415 0-1.898.466-3.405 1.397-4.522.938-1.118 2.195-1.676 3.77-1.676 1.475 0 2.643.487 3.502 1.461.86.966 1.289 2.245 1.289 3.835v1.128h-8.11c.036 1.382.383 2.431 1.042 3.147.666.716 1.6 1.074 2.804 1.074 1.267 0 2.52-.265 3.759-.795v1.59a9.077 9.077 0 01-1.794.58c-.558.122-1.235.183-2.03.183zm-.483-10.71c-.946 0-1.701.308-2.267.924-.558.616-.888 1.468-.988 2.556h6.155c0-1.124-.251-1.983-.752-2.578-.501-.601-1.217-.902-2.148-.902zM828.95 149.05l-2.5-2.5-6.95 6.9-6.95-6.9-2.5 2.5 9.45 9.4 9.45-9.4z" fill="#fff"/></g><rect x="110" y="45" width="741" height="143" rx="3.5" stroke="#6A6E79"/><defs><clipPath id="prefix__clip0_6828_86696"><rect x="109.5" y="44.5" width="742" height="144" rx="4" fill="#fff"/></clipPath></defs></svg>
